!!!COM:	L van Beethoven
!!!OTL:	Scherzo
**kern	**dynam
*I"Viola	*
*clefC3	*
*k[b-e-]	*
*B-:	*
*M2/2	*
=1	=1
4B-	fp
4B-	.
4B-	.
4B-	.
=2	=2
4B-	.
4B-	.
4B-	.
4B-	.
=3	=3
4B-	fp
4B-	.
4B-	.
4B-	.
=4	=4
4B-	.
4B-	.
4B-	.
4B-	.
=5	=5
4B-	.
4B-	.
4B-	.
4B-	.
=6	=6
4A	.
4A	.
4A	.
4A	.
=7	=7
4B-	.
4B-	.
4B-	.
4B-	.
=8	=8
4A	.
4A	.
4A	.
4A	.
=9	=9
4B-	.
4B-	.
4B-	.
4B-	.
=10	=10
4A	.
4A	.
4A	.
4A	.
=11	=11
4B-	.
4B-	.
4f	.
4f	.
=12	=12
4g	.
4g	.
4G	.
4G	.
=13	=13
4F	.
4f	.
4e	pp
4e	.
=14	=14
4f	.
4f	.
4e	.
4e	.
=15	=15
4f	.
4f	.
4e	.
4e	.
=16	=16
4f	.
4f	.
4e	.
4e	.
=17	=17
!LO:TX:t=cresc.	!
4f	<
4e	.
4f	.
4e	.
=18	=18
4f	f
4r	.
2r	.
=19	=19
8DL	fp
8F	.
8D	.
8F	.
8DL	.
8F	.
8D	.
8F	.
=20	=20
8DL	.
8F	.
8D	.
8F	.
8DL	.
8F	.
8D	.
8F	.
=21	=21
8DL	fp
8F	.
8D	.
8F	.
8DL	.
8F	.
8D	.
8F	.
=22	=22
8DL	.
8F	.
8D	.
8F	.
8DL	.
8F	.
8D	.
8F	.
=23	=23
8DL	.
8F	.
8D	.
8F	.
8DL	.
8F	.
8D	.
8F	.
=24	=24
8E-L	.
8F	.
8E-	.
8F	.
8E-L	.
8F	.
8E-	.
8F	.
=25	=25
8DL	.
8F	.
8D	.
8F	.
8DL	.
8F	.
8D	.
8F	.
=26	=26
8E-L	.
8F	.
8E-	.
8F	.
8E-L	.
8F	.
8E-	.
8F	.
=27	=27
8DL	.
8F	.
8D	.
8F	.
8DL	.
8F	.
8D	.
8F	.
=28	=28
8E-L	.
8F	.
8E-	.
8F	.
8E-L	.
8F	.
8E-	.
8F	.
=29	=29
4D	.
4r	.
2r	.
=30	=30
!LO:TX:t=cresc.	!
(2d	<
2B-	.
=31	=31
2G	.
[2A)	.
=32	=32
4A	.
(4A-	.
4G	.
4F)	.
=33	=33
4E	[
2e	sf
4e	.
=34	=34
4f	.
2f	sf
4f	.
=35	=35
4e	.
2cc	.
(8b	.
8cc)	.
=36	=36
8ddL	.
8cc	.
8b	.
8a	.
8gL	.
8f	.
8e	.
8d	.
=37	=37
4c	f
2c	sf
4c	.
=38	=38
4d	.
2d	sf
4d	.
=39	=39
4c	.
2cc	sf
(8b	.
8cc)	.
=40	=40
8ddL	.
8cc	.
8b	.
8a	.
8gL	.
8f	.
8e	.
8d	.
=41	=41
4c	.
4f	.
4e	.
4f	.
=42	=42
4e	.
4b	.
4cc	.
4f 4dd	.
=43	=43
4e 4cc	.
4r	.
4c	f
4r	.
=44	=44
4C	.
4r	.
2r	.
=45	=45
4f	p
4r	.
4.f	.
8f	.
=46	=46
[2f	.
4.f	.
8f	.
=47	=47
qqa	.
4.g	.
8f	.
qqa	.
4.g	.
8f	.
=48	=48
1e	<
=49	=49
4f	[
4r	.
4.f	.
8f	.
=50	=50
[2f	.
4.f	.
8f	.
=51	=51
qqa-	.
4.g	.
8f	.
qqa-	.
4.g	.
8f	.
=52	=52
2.e	<
4B-	>
=53	=53
4A-	]
4r	.
4.A	.
8A	.
=54	=54
[2B-	sf
4.B-	>
8f	]
=55	=55
4e-	p
4r	.
4e-	.
4r	.
=56	=56
1e-	pp
=57	=57
!LO:TX:t=cresc.	!
4F	.
4r	.
4.F	.
8F	.
=58	=58
[2G-	sf
4.G-	>
8d-	]
=59	=59
4c	p
4r	.
4c	.
4r	.
=60	=60
!LO:TX:t=decresc.	!
[2c	.
4.c	.
8d-	.
=61	=61
4c	.
4r	.
4c	.
4r	.
=62	=62
[2c	pp
4.c	.
8d	.
=63	=63
4c	.
4r	.
4c	.
4r	.
=64	=64
1c	sf
=65	=65
1c	sf
=66	=66
2.c	sf
4d	.
=67	=67
4r	.
4B-	.
4r	.
4G	.
=68	=68
4r	.
(4a	p
4g#	.
4a)	.
=69	=69
4r	.
2cc	.
4cc	.
=70	=70
4r	.
!LO:TX:t=cresc.	!
(4c	.
4c#	.
4d)	.
=71	=71
4A	.
4a	.
4r	.
4a	.
=72	=72
4r	.
4f	.
4r	.
4f	.
=73	=73
4r	.
4d	.
4r	.
4d	.
=74	=74
4G	p
4r	.
2r	.
=75	=75
4F	.
4r	.
2r	.
=76	=76
4B- 4g	.
4r	.
2r	.
=77	=77
!LO:TX:t=cresc.	!
4B 4a-	.
4r	.
2r	.
=78	=78
8CL	f
8F	.
8A	.
8c	.
8fL	.
8a	.
8cc	.
8cc	.
=79	=79
1b-T	sf
=80	=80
4a	.
4r	.
4r	.
(qqg	p
8f	.
16e	.
16f)	.
=81	=81
4g	.
4c	.
4g	.
4c	.
=82	=82
(2a	sf
4f)	.
4r	.
=83	=83
1r	.
=84	=84
2r	.
4r	.
(qqB-	.
8A	.
16G	.
16A)	.
=85	=85
!LO:TX:t=cresc.	!
4C 4B-	<
4C 4G	.
4C 4B-	.
4C 4G	.
=86	=86
*^	*
(2c	2.C	sf
4A)	.	.
*v	*v	*
(8c	.
8A)	.
=87	=87
8GL	.
8A	.
8B-	.
8c	.
8dL	.
8e	.
8f	.
8g	.
=88	=88
8aL	f
8cc	.
8cc	.
8b-	.
8aL	.
8cc	.
8cc	.
8b-	.
=89	=89
8aL	.
8cc	.
8cc	.
8b-	.
8aL	.
8cc	.
8cc	.
8b-	.
=90	=90
4a	.
4r	.
4C 4c	ff
4r	.
=91	=91
4F 4c	.
4r	.
2r	.
=92:|!	=92:|!
4F 4c	.
4r	.
4r	.
(qqd	f
8c	.
16B	.
16c)	.
=93!|:	=93!|:
4A	.
4f	.
4c	.
4a	.
=94	=94
2.f	sf
4r	.
=95	=95
1r	.
=96	=96
2r	.
4r	.
(qqd	p
8c	.
16B	.
16c)	.
=97	=97
4A	.
4r	.
2r	.
=98	=98
2r	.
4r	.
(qqd	pp
8c	.
16B	.
16c)	.
=99	=99
4A	.
4r	.
2r	.
=100	=100
2r	.
4r	.
(qqd	.
8c	.
16B	.
16c)	.
=101	=101
!LO:TX:t=cresc.	!
(1A	<
=102	=102
1G)	.
=103	=103
2.F#	fp
4r	.
=104	=104
1r	.
=105	=105
!LO:TX:t=cresc.	!
4D	<
4A	.
4F#	.
4d	.
=106	=106
4A	.
4f#	.
4d	.
4a	.
=107	=107
2.a	fp
4r	.
=108	=108
1r	.
=109	=109
!LO:TX:t=cresc.	!
4C	.
4A	.
4E-	.
4c	.
=110	=110
4A	.
4f#	.
4c	.
4a	.
=111	=111
4d 4b-	f
4r	.
2r	.
=112	=112
4d 4dd	sf
4r	.
2r	.
=113	=113
1r	.
=114	=114
1r	.
=115	=115
1r	.
=116	=116
2r	.
4r	.
(8A	p
8G)	.
=117	=117
8F#L	.
8G	.
8A	.
8B-	.
8cL	.
8d	.
8e	.
8f#	.
=118	=118
8gL	.
8a	.
8b-	.
8cc	.
4dd	.
4dd	.
=119	=119
4dd	.
4dd	.
4dd	.
4dd	.
=120	=120
(2b-	.
4g)	.
4r	.
=121	=121
1r	.
=122	=122
2r	.
4r	.
(8G	p
8F)	.
=123	=123
8EL	.
8F	.
8G	.
8A	.
8B-L	.
8c	.
8d	.
8e	.
=124	=124
8fL	.
8g	.
8a	.
8b-	.
4cc	.
4cc	.
=125	=125
4cc	.
4cc	.
4cc	.
4cc	.
=126	=126
(2a-	.
4f)	.
4r	.
=127	=127
1r	.
=128	=128
2r	.
4r	.
(8F	p
8E-)	.
=129	=129
8DL	.
8E-	.
8F	.
8G	.
8A-L	.
8B-	.
8c	.
8d	.
=130	=130
8e-L	.
8f	.
8g	.
8a-	.
4b-	.
4b-	.
=131	=131
4b-	.
4b-	.
4b-	.
4b-	.
=132	=132
(2g-	.
4e-)	.
!LO:TX:t=cresc.	!
4A-	<
=133	=133
4A-	.
4A-	.
4A-	.
4A-	.
=134	=134
(2F	.
4D-)	[
4G-	f
=135	=135
4G-	.
4G-	.
4G-	.
4G-	.
=136	=136
(2E-	.
4C)	.
4f	ff
=137	=137
4f	.
4f	.
4f	.
4f	.
=138	=138
8d-L	.
8c	.
8d-	.
8e-	.
8fL	sf
8e-	.
8d-	.
8c	.
=139	=139
8B-L	.
8A-	.
8G-	.
8F	.
4E	.
4E	.
=140	=140
2.F	fp
4r	.
=141	=141
1r	.
=142	=142
1r	.
=143	=143
1r	.
=144	=144
2r	.
4A	pp
4F	.
=145	=145
2r	.
4B-	.
4G	.
=146	=146
2r	.
4c	.
4A	.
=147	=147
4d-	.
4B-	.
4d	.
4B	.
=148	=148
4e-	.
4r	.
2r	.
=149	=149
1r	.
=150	=150
1r	.
=151	=151
1r	.
=152	=152
1r	.
=153	=153
1r	.
=154	=154
(8FL	p
8G	.
8F	.
8G	.
8AL	.
8B-	.
8A	.
8B-	.
=155	=155
8cL	.
8d	.
8c	.
8d)	.
4e-	.
4e-	.
=156	=156
4e-	.
4r	.
2r	.
=157	=157
1r	.
=158	=158
(8AL	.
8B-	.
8A	.
8B-	.
8cL	.
8d	.
8c	.
8d	.
=159	=159
8e-L	.
8f	.
8e-	.
8f)	.
4g	.
4g	.
=160	=160
(2.g	.
8f#	.
8g	.
=161	=161
4a	.
4g	.
4f	.
4e-)	.
=162	=162
(2d	.
2c)	.
=163	=163
2c	.
2r	.
=164	=164
(2.g	.
8f#	.
8g	.
=165	=165
8f#L	.
8g	.
8f#	.
8g	.
8aL	.
8g	.
8f	.
8e-)	.
=166	=166
(2d	.
2c)	.
=167	=167
2c	.
2r	.
=168	=168
2r	.
!LO:TX:t=cresc.	!
(4d	.
4c)	.
=169	=169
2r	.
(4e-	.
4d)	.
=170	=170
2r	.
(4f	.
4e)	.
=171	=171
2r	.
!LO:TX:t=decresc	!
(4g	.
4f)	.
=172	=172
2e-	p
2r	.
=173	=173
1r	.
=174	=174
[1c	pp
=175	=175
1c	.
=176	=176
4B-	fp
4B-	.
4B-	.
4B-	.
=177	=177
4B-	.
4B-	.
4B-	.
4B-	.
=178	=178
4B-	fp
4B-	.
4B-	.
4B-	.
=179	=179
4B-	.
4B-	.
4B-	.
4B-	.
=180	=180
4B-	.
4B-	.
4B-	.
4B-	.
=181	=181
4A	p
4A	.
4A	.
4A	.
=182	=182
4B-	.
4B-	.
4B-	.
4B-	.
=183	=183
4A	.
4A	.
4A	.
4A	.
=184	=184
4B-	.
4B-	.
4B-	.
4B-	.
=185	=185
4A	.
4A	.
4A	.
4A	.
=186	=186
4B-	.
4B-	.
4f	.
4f	.
=187	=187
4g	.
4g	.
4G	.
4G	.
=188	=188
4F	.
4f	.
4e	pp
4e	.
=189	=189
4f	.
4f	.
4e	.
4e	.
=190	=190
4f	.
4f	.
4e	.
4e	.
=191	=191
4f	.
4f	.
4e	.
4e	.
=192	=192
!LO:TX:t=cresc.	!
4f	<
4e	.
4f	.
4e	.
=193	=193
4f	f
4r	.
4r	.
(qqg	.
8f	.
16e	.
16f)	.
=194	=194
4B-	.
(qqg	.
8f	.
16e	.
16f)	.
4B-	.
(qqg	.
8f	.
16e	.
16f)	.
=195	=195
8B-L	.
8c	.
8d	.
8e-	.
8fL	.
8g	.
8a-	.
8f	.
=196	=196
8gL	.
8e-	.
8a-	sf
8f	.
8gL	.
8e-	.
(8a-	sf
8f)	.
=197	=197
8gL	.
8e-	.
8B-	.
8G	.
8gL	.
8e-	.
8a-	sf
8f	.
=198	=198
8gL	.
8e-	.
8a-	sf
8f	.
8gL	.
8e-	.
(8a-	sf
8f)	.
=199	=199
4g	p
4g	.
4r	.
4g	.
=200	=200
4r	.
4d	.
4r	.
4d	.
=201	=201
4r	.
4e-	.
4r	.
4g	.
=202	=202
4r	.
4f	.
4r	.
4f	.
=203	=203
4B- 4g-	f
4B- 4g-	.
4r	.
4B- 4g-	.
=204	=204
4r	.
4B- 4d	.
4r	.
4B- 4d	.
=205	=205
4r	.
4B- 4e-	.
4r	.
4B- 4e-	.
=206	=206
4r	.
4B-	.
4r	.
4e	.
=207	=207
4f	.
2A	sf
4A	.
=208	=208
4B-	.
2B-	sf
4B-	.
=209	=209
4A	.
2f	sf
(8e	.
8f)	.
=210	=210
8gL	.
8f	.
8e	.
8d	.
8cL	.
8B-	.
8A	.
8G	.
=211	=211
4F	.
2c	sf
4c	.
=212	=212
4c	.
2c	sf
4c	.
=213	=213
4c	.
2f	sf
(8e	.
8f)	.
=214	=214
8gL	.
8f	.
8e	.
8d	.
8cL	.
8B-	.
8A	.
8G	.
=215	=215
4F	.
4g	.
4f	.
4e	.
=216	=216
4f	.
4b-	.
4a	.
4B- 4g	.
=217	=217
4A 4f	.
4r	.
4f	f
4r	.
=218	=218
4F	.
4r	.
2r	.
=219	=219
4b-	p
4r	.
4.f	.
8f	.
=220	=220
[2f	.
4.f	.
8f	.
=221	=221
4.f	.
8f	.
4.f	.
8f	.
=222	=222
(4f	<
4g-	.
4f	>
4e-)	.
=223	=223
4d-	]
4r	.
4.b-	.
8b-	.
=224	=224
[2b-	.
4.b-	.
8b-	.
=225	=225
qqdd-	.
4.cc	.
8b-	.
qqdd-	.
4.cc	.
8b-	.
=226	=226
(2.a	<
4e-)	>
=227	=227
4d-	]
4r	.
4.d	.
8d	.
=228	=228
[2e-	sf
4.e-	>
8e-	]
=229	=229
4a-	p
4r	.
4g-	.
4r	.
=230	=230
1f	pp
=231	=231
!LO:TX:t=cresc.	!
4B-	<
4r	.
4.B-	.
8B-	.
=232	=232
[2c	sf
4.c	[
8g-	.
=233	=233
4f	p
4r	.
4f	.
4r	.
=234	=234
!LO:TX:t=decresc	!
[2f	.
4.f	.
8g-	.
=235	=235
4f	.
4r	.
4f	.
4r	.
=236	=236
[2f	pp
4.f	.
8g	.
=237	=237
!LO:TX:t=cresc.	!
4f	.
4r	.
4f	.
4r	.
=238	=238
1f	sf
=239	=239
1f	sf
=240	=240
2.f	sf
4g	.
=241	=241
4r	.
4e-	.
4r	.
4c	.
=242	=242
4r	.
2f	p
4f	.
=243	=243
4r	.
(4a	.
4g#	.
4a)	.
=244	=244
4r	.
!LO:TX:t=cresc.	!
(4f	.
4f#	.
4g)	.
=245	=245
4d	.
4d	.
4r	.
4d	.
=246	=246
4r	.
4B-	.
4r	.
4B-	.
=247	=247
4r	.
4F	.
4r	.
4F	.
=248	=248
4C 4c	p
4r	.
2r	.
=249	=249
4G	.
4r	.
2r	.
=250	=250
!LO:TX:t=cresc.	!
4g	.
4r	.
2r	.
=251	=251
4d-	.
4r	.
2r	.
=252	=252
8E-L	f
8B-	.
8d	.
8f	.
8b-L	.
8dd	.
8ff	.
8ff	.
=253	=253
1ee-T	sf
=254	=254
4dd	.
4r	.
4r	.
(qqcc	p
8b-	.
16a	.
16b-)	.
=255	=255
4cc	.
4f	.
4cc	.
4f	.
=256	=256
(2dd	.
4b-)	.
4r	.
=257	=257
2r	.
4A	.
4F	.
=258	=258
2r	.
4B-	.
8F	.
8F	.
=259	=259
4F	.
4F	.
4F	.
4F	.
=260	=260
2F	sf
4F	.
(8f	.
8d)	.
=261	=261
8cL	.
8d	.
8e-	.
8f	.
8gL	.
8a	.
8b-	.
8cc	.
=262	=262
8ddL	f
8dd	.
8dd	.
8cc	.
8b-L	.
8dd	.
8dd	.
8cc	.
=263	=263
8b-L	.
8dd	.
8dd	.
8cc	.
8b-L	.
8dd	.
8dd	.
8cc	.
=264	=264
4b-	.
4r	.
4f	ff
4r	.
=265	=265
4B-	.
4r	.
4r	.
(qqd	.
8c	.
16B	.
16c)	.
=266:|!	=266:|!
4B-	.
4r	.
2r	.
=267	=267
*k[b-e-a-]	*
*E-:	*
*M2/4	*
!LO:TX:a:B:t=Adagio ma non troppo	!
8B-L	p
8r	.
8e-L	.
8r	.
=268	=268
8fL	.
8r	.
8dL	.
8r	.
=269	=269
8B-L	.
8r	.
8B-L	.
8r	.
=270	=270
16e-	.
16r	.
16f	.
16r	.
16d	.
16r	.
8r	.
=271	=271
(16GLL	p
16B-)	.
(16B-	.
16B-)	.
(16B-LL	.
16B-	.
16B-	.
16B-)	.
=272	=272
8.B-L	.
16B-	.
(16B-LL	.
16F)	.
(16FLL	.
16D)	.
=273	=273
([4E- 4B-	.
4E-) 4c	.
=274	=274
16B-LL	.
16r	.
16A-	.
16r	.
8GL	.
8r	.
=275	=275
(16.DLL	.
32E-)	.
(16F	.
16G)	.
8.A-L	.
16G	.
=276	=276
(16A-LL	.
16F)	.
(16G	.
16A)	.
8B-L	.
8r	.
=277	=277
(16.dLL	.
32e-)	.
(16f	.
16g)	.
8.a-L	<
16a-	>
=278	=278
(8gL	<
8e-	>
8f)	]
8r	.
=279	=279
8r	.
!LO:TX:t=queste note ben marcate	!
32.r	.
64e-	p
32.B-	.
64G	.
8E-L	.
8r	.
=280	=280
8r	.
32.r	.
64f	.
32.d	.
64B-	.
8A-L	.
8r	.
=281	=281
8r	.
32.r	.
64E-	.
32.F	.
64G	.
8A-L	.
8r	.
=282	=282
16B-LL	.
16r	.
16A-	.
16r	.
8GL	.
8r	.
=283	=283
4r	.
8r	.
16r	.
(16D	pp
=284	=284
16E-LL	.
16F	.
16G-	.
16A	.
16B-LL	.
16c	.
16d-	.
16e)	.
=285	=285
!LO:TX:t=cresc.	!
8.fL	.
[16f	.
(16fLL	.
16A	.
16B-	.
16e-)	.
=286	=286
16d-LL	pp
16r	.
16c	.
16r	.
8B-L	.
8r	.
=287	=287
2r	.
=288	=288
4r	.
(16B-LL	p
16c	.
16d-	.
16e)	.
=289	=289
!LO:TX:t=cresc.	!
(8fL	.
16d-	.
16A	.
16B-LL	.
16F	.
16G-	.
16E-)	.
=290	=290
16FLL	p
16r	.
16F	.
16r	.
8B-L	.
8r	.
=291	=291
8r	.
16r	.
16d-	.
(16d-LL	sf
32f)	.
32r	.
(16g-	sf
32f)	.
32r	.
=292	=292
8r	.
16r	.
16B-	.
!LO:TX:t=cresc.	!
(16B-LL	.
32d)	.
32r	.
(16e-	.
32d-)	.
32r	.
=293	=293
(8.e-L	fp
!LO:TX:t=decresc.	!
16d-	.
16c-LL	.
16B-	.
16B-	.
16G-)	.
=294	=294
16A-LL	pp
16r	.
16F	.
16r	.
8E-L	.
8r	.
=295	=295
8.d-L	fp
32d-	.
32d-	.
(32a-LLL	sf
32g-)	.
32f	.
32f	.
(32a-LLL	sf
32g-)	.
32f	.
32f	.
=296	=296
8.B-L	fp
32B-	.
32B-	.
(32fLLL	sf
32e-)	.
32d	.
32d	.
(32fLLL	sf
32e-)	.
32d-	.
32d-	.
=297	=297
(8e-L	fp
16c-	.
16G	.
16A-LL	.
16F	.
16G-	.
16B-)	.
=298	=298
16c-LL	pp
16r	.
16A-	.
16r	.
8G-L	.
8r	.
=299	=299
(16cc-LL	pp
16g	.
16a-	.
16e-	.
16f-LL	.
16d	.
16e-	.
16G-)	.
=300	=300
8A-L	.
8r	.
16ALL	pp
16r	.
16A	.
16r	.
=301	=301
(16B-	.
16b-)	.
(16b-LL	.
64a	.
64b-	.
64cc-	.
64b-)	.
4b-	.
=302	=302
(16B-LL	.
16b-)	.
(16b-LL	.
64a	.
64b-	.
64cc-)	.
64b-	.
[4b-	.
=303	=303
16b-LL	.
16dd	.
16r	.
16cc	.
16r	.
16b-	.
16r	.
16a-	.
=304	=304
32gLLL	.
32r	.
32f	.
32r	.
32e-	.
32r	.
32d	.
32r	.
32c	.
32r	.
32B-	.
32r	.
32A-	.
32r	.
32G	.
32r	.
=305	=305
(8FL	<
8G	.
8A-L)	>
(16G	>
16G-)	]
=306	=306
(8FL	<
8G	.
8A-L)	>
(16G	]
16G-)	.
=307	=307
16FLL	p
16F	.
8r	.
16r	.
16f	.
8r	.
=308	=308
16r	.
16f	.
8r	.
16fLL	.
16r	.
16f	.
16r	.
=309	=309
8FL	.
8r	.
4r	.
=310	=310
4r	.
16r	.
!LO:TX:t=cresc.	!
(16f	.
16f	.
16f)	.
=311	=311
8e-L	p
8r	.
8r	.
16r	.
(64D	.
64E-	.
64F	.
64E-)	.
=312	=312
8DL	.
8r	.
4r	.
=313	=313
8r	.
8B-	.
8r	.
8B-	.
=314	=314
16e-LL	.
16r	.
16f	.
16r	.
16d	.
16r	.
8r	.
=315	=315
(16GLL	p
16B-)	.
(16B-	.
16B-)	.
(16B-LL	.
16B-	.
16B-	.
16B-)	.
=316	=316
16B-LL	.
16B-	.
16B-	.
16B-	.
(16B-LL	.
16F)	.
(16F	.
16D)	.
=317	=317
[4E- 4B-	.
4E- 4c	.
=318	=318
16E-LL 16B-	.
16r	.
16A- 16d	.
16r	.
8GL	.
8r	.
=319	=319
(16.DLL	.
32E-)	.
(16F	.
16G)	.
(8.A-L	.
16G)	.
=320	=320
(16A-LL	.
16F)	.
(16G	.
16A)	.
8B-L	.
8r	.
=321	=321
(16.dLL	.
32e-)	.
(16f	.
16g)	.
8.a-L	<
16a-	[
=322	=322
(8gL	<
8e-	>
8f)	]
8r	.
=323	=323
4r	.
!LO:TX:t=queste note ben marcate.	!
32E-LLL	.
32b-	.
32r	.
32g	.
32r	.
32B-	.
32G	.
32E-	.
=324	=324
8DL	.
8r	.
32DLLL	.
32a-	.
32r	.
32f	.
32r	.
32f	.
32d	.
32A-	.
=325	=325
8GL	.
8r	.
32A-LLL	.
32cc	.
32r	.
32a-	.
32r	.
32f	.
32c	.
32A-	.
=326	=326
16B-LL	.
16e-	.
16r	.
16d	.
8e-L	.
8r	.
=327	=327
(16.a-LL	.
32g)	.
(16f	.
16e-)	<
8.dL	.
(16d	[
=328	=328
16e-LL	>
16d	.
16e-)	.
16e-	]
8dL	.
8r	.
=329	=329
!LO:TX:t=cresc.	!
!LO:TX:t=cresc.	!
(16.ccLL	.
32b-)	.
(16a-	.
16g)	.
8.fL	.
16f	sf
=330	=330
16fLL	.
16f	sf
16f	.
16f	sf
8fL	.
8r	.
=331	=331
8e-L	p
8r	.
8A-L	ff
8r	.
=332	=332
16B-LL	p
16r	.
16d	.
16r	.
16B-	.
16r	.
16r	.
16G	pp
=333	=333
(8gL	.
16e-	.
16B	.
8cL	.
16G	.
16B	.
=334	=334
16cLL	.
16d	.
16e-	.
16f#	.
8gL)	.
8r	.
=335	=335
8.CL 8.c	pp
16C 16d	sf
8.CL 8.c	.
16C 16d	sf
=336	=336
8.CL 8.c	.
16C 16d	sf
(16cLL	p
16d	.
16e-	.
16e	.
=337	=337
!LO:TX:t=cresc.	!
!LO:TX:t=cresc.	!
16fLL)	.
16c	.
16c	.
16c	.
(16fLL	.
16F)	.
(16F	.
16B-)	.
=338	=338
8B-L	p
8r	.
8A-L	ff
8r	.
=339	=339
16B-LL	pp
16r	.
16d	.
16r	.
16B-	.
16r	.
16r	.
(64A	.
64B-	.
64c)	.
64B-	.
=340	=340
8DL	.
8r	.
4r	.
=341	=341
16fLL	.
16r	.
16f	.
16r	.
16e-	.
16r	.
(64A	.
64B-	.
64A	.
64B-	.
64A	.
64B-	.
64c	.
64B-)	.
=342	=342
8DL	.
8r	.
4r	.
=343	=343
16FLL	.
16r	.
16F	.
16r	.
16E-	.
16r	.
8r	.
=344	=344
4r	.
8.r	.
(16B-	.
=345	=345
8E-J)	.
!LO:TX:t=pizz.	!
8A-L	p
8GL	.
8r	.
=346!|:	=346!|:
*k[b-e-]	*
*B-:	*
*M3/4	*
!LO:TX:a:B:t=Allegro	!
!LO:TX:t=arco	!
8fL	p
8f	.
8f	.
=347	=347
4f	.
8r	.
8a	.
8f	.
8a	.
=348	=348
4f	.
8r	.
8f	.
8f	.
8f	.
=349	=349
4f	.
8r	.
8f	.
8f	.
8g	.
=350	=350
4f	.
8r	.
8a	.
8a	.
8b	.
=351	=351
4cc	.
8r	.
8c	.
8c	.
8B-	.
=352	=352
4G	.
8r	.
8c	p
8d	.
8e-	.
=353	=353
8cL	.
4c	.
4c	.
8c	.
=354	=354
4B-	.
8r	.
=:|!|:	=:|!|:
8AL	f
8B-	.
8B-	.
=355	=355
4A	.
8r	.
8f#	p
8f#	.
8f	.
=356	=356
4e	.
8r	.
8G	f
8A-	.
8A-	.
=357	=357
4G	.
8r	.
8e	p
8e	.
8e-	.
=358	=358
8e-L	.
8d	.
8d	.
!LO:TX:t=cresc.	!
8d	<
8d	.
8e-	.
=359	=359
8e-L	.
8B	.
8B	.
8c	.
8G	.
8g	.
=360	=360
8gL	.
8d	.
8e-	.
8f	.
8g	.
8g	.
=361	=361
4f	p
4r	.
4r	.
=362	=362
2.r	.
=363	=363
8FL	.
8f	.
2f	sf
=364	=364
8FL	.
8f	.
2f	sf
=365	=365
4F	.
4r	.
4r	.
=366	=366
4f	f
4a	.
4c	.
=367	=367
2.r	.
=368	=368
4r	.
8r	.
4f	p
[8e-	sf
=369	=369
8e-L	.
8d	.
8d	.
8F	.
8D	.
[8F	sf
=370	=370
8FL	.
8D	.
8D	.
8C	.
8D	.
[8F	sf
=371	=371
8FL	.
8B-	.
8B-	.
8F	.
8B-	.
8c	.
=372	=372
4F	.
8r	.
4ee-	.
[8dd	sf
=373	=373
8ddL	.
8cc	.
8cc	.
8AL	.
8A	.
8B-	.
=374	=374
4G	.
8r	.
8c	.
8d	.
8e-	.
=375	=375
8fL	.
4c 4e-	.
4c 4e-	.
8c 8e-	.
=376	=376
4B- 4d	.
4r	.
4r	.
=377	=377
2.r	.
=378	=378
4r	.
8r	.
!LO:TX:t=cresc.	!
8b-	.
8b-	.
8b-	.
=379	=379
4cc	f
4c	.
4A	.
=380	=380
4B-	.
8r	.
4A-	p
[8F#	p
=381	=381
8F#L	.
8G	.
8G	.
4G	.
[8E	sf
=382	=382
8EL	.
8F	.
8F	.
4e	.
[8g	sf
=383	=383
8gL	.
8f	.
8f	.
4G	sf
[8E	.
=384	=384
8EL	.
8F	.
8F	.
4e	sf
8g	.
=385	=385
8gL	p
8f	.
8f	.
8g	.
8g	.
8f	.
=386	=386
!LO:TX:t=cresc.	!
8fL	<
8g	.
8g	.
8f	.
8f	.
8g	.
=387	=387
8gL	.
8f	.
8f	.
8cc	.
8cc	.
8f	.
=388	=388
8fL	.
8f	.
8f	.
8f	.
8f	.
8B-	.
=389	=389
8B-L	.
8B-	.
8B-	.
8a-	.
8a-	.
8g	.
=390	=390
8cL	ff
8cc	.
8b-	.
8b-	.
8dd-	.
8dd-	.
=391	=391
4f 4dd	.
4r	.
4r	.
=392	=392
4c 4e-	p
4r	.
4r	.
=393	=393
4B- 4d	.
4r	.
4r	.
=394	=394
8r	.
8B-L	.
8B-	.
=395:|!	=395:|!
8r	.
8B-L	.
8B-	.
8r	.
8r	.
=!|:	=!|:
!LO:TX:t=TRIO	!
8r	.
=396	=396
2.r	.
=397	=397
4B-	f
4r	.
(4e-	p
=398	=398
4d	.
4c	.
4B-	.
=399	=399
4A)	.
4r	.
4r	.
=400	=400
2.r	.
=401	=401
4B-	f
4r	.
(4g	p
=402	=402
4d)	.
4e-	.
4c	.
=403	=403
4B-	.
4r	.
8r	.
=:|!|:	=:|!|:
8r	.
=404	=404
4r	.
(4d	p
4B	.
=405	=405
4e-)	.
(4E-	.
4D-)	.
=406	=406
4C	.
(4c	.
4A)	.
=407	=407
4d	.
4B-	.
4B-	.
=408	=408
2.r	.
=409	=409
4A-	f
4r	.
(4g	p
=410	=410
4d	.
4e-	.
4c)	.
=411	=411
4B-	.
4r	.
8r	.
=412:|!	=412:|!
4B-	.
4r	.
4r	.
=413	=413
8FL 8d-	ff
8F 8d-	.
8F 8d-	.
8r	.
4r	.
=414	=414
8FL 8d-	ff
8F 8d-	.
8F 8d-	.
8r	.
4r	.
=415	=415
8B-L	.
8f	.
8B-	.
8f	.
8F	.
8f	.
=416	=416
!LO:TX:t=Scherzo D.C.	!
4B-	.
8r	.
=417	=417
*M2/4	*
!LO:TX:t=Adagio	!
!LO:TX:t=LA MALINCONIA	!
4B-	pp
!LO:TX:t=sempre	!
(8B-L	.
8B-)	.
=418	=418
4B-	.
4r	.
=419	=419
4B-	.
(8b-L	.
8b-)	.
=420	=420
2b-	<
=421	=421
4F	pp
(8FL	.
8F)	.
=422	=422
4F	.
(8..DL	.
32F	.
=423	=423
8..B-L	.
32c)	.
(8dL	.
8d)	.
=424	=424
(qqc#	.
qqd)	.
qqe)	.
4d	.
4c	.
=425	=425
4B	.
!LO:TX:t=cresc.	!
(8BL	.
8B)	.
=426	=426
4B	.
(8..fL	.
32e-	.
=427	=427
8..dL	.
32c)	.
(8BL	.
8B)	.
=428	=428
2B	pp
=429	=429
2A#	f
=430	=430
2cc	p
=431	=431
2d	f
=432	=432
2ee-	p
=433	=433
4A	pp
(8AL	.
8A)	.
=434	=434
[4A	.
(8..AL	.
32G#	.
=435	=435
8..F#L	.
32E)	.
(8D#L	.
8D#)	.
=436	=436
4.D#	.
8r	.
=437	=437
(4e	pp
4A#	.
=438	=438
4B	.
8E#L)	.
8E#	.
=439	=439
(4A	.
4G#	.
=440	=440
4E	.
4D#)	.
=441	=441
!LO:TX:t=cresc.	!
(4e-	<
4f	.
=442	=442
4B-	.
4c	.
=443	=443
4F	.
4G)	.
=444	=444
4C 4c	[
[4C [4c	sf
=445	=445
4C 4c	[
4e-	.
=446	=446
(qqG-	f
qqF)	.
qqE-	.
4F	.
4f	p
=447	=447
(qqA-	f
qqG)	.
qqF	.
4G	.
4g	p
=448	=448
(qqB-	f
qqA)	.
qqG	.
4A	.
(8f#L	p
8f#)	.
=449	=449
(4g	.
4c#	sf
=450	=450
4d	.
4G#)	sf
=451	=451
(4A	p
!LO:TX:t=decresc	!
!LO:TX:t=decresc	!
4d	.
=452	=452
2c)	.
=453	=453
4r	.
4c	pp
=454	=454
4r	.
!LO:TX:t=cresc.	!
4A	<
=455	=455
4r	.
4cc	.
=456	=456
4r	.
4g	.
=457	=457
4r	.
4g-	.
=458	=458
!LO:TX:t=attacca subito il Allegretto	!
4r	[
4c	ff
=459	=459
4B-	p
!LO:TX:t=decresc	!
8B-L	.
8B-	.
=460	=460
4B-	pp
16ALL	.
==461	==461
*M3/8	*
!LO:TX:a:B:t=Allegretto quasi Allegro	!
16r	.
8r	.
=462	=462
8FL	p
4F	sf
=463	=463
8FL	.
4F	sf
=464	=464
(8AL	p
8G	.
8F	.
=465	=465
8B-L	.
8c	.
8d)	.
=466	=466
(8e-L	.
8A	.
8B	.
=467	=467
8cL	.
8F#	.
8G)	.
=468	=468
(8E-L	.
8C	.
8E-)	.
=469	=469
4F	.
8r	.
=470	=470
8FL 8d	.
4F 4d	sf
=471	=471
8FL 8e-	.
4F 4e-	sf
=472	=472
4.r	.
=473	=473
8B-L	p
8B-	.
8B-	.
=474	=474
(8B-L	.
8e-	.
[8d)	.
=475	=475
(8dL	.
8c	.
8B-)	.
=476	=476
8GL	.
(8G	.
8A)	.
=477	=477
4B-	.
8r	.
=478	=478
4.r	.
=479	=479
4.r	.
=480	=480
8cL	.
8c	.
8c	.
=481	=481
8cL	.
16r	.
(16A	.
16a	.
16g)	.
=482	=482
(16gLL	.
16f)	.
16f	.
16e	.
16d	.
16c	.
=483	=483
(8cL	.
8B)	.
8r	.
=484	=484
8gL	.
8g	.
8g	.
=485	=485
8gL	.
8r	.
[8g	.
=486	=486
8gL	.
8r	.
[8g	.
=487	=487
8gL	.
8r	.
8r	.
=488	=488
8r	.
8r	.
[8G	.
=489	=489
8GL	.
8r	.
[8G	.
=490	=490
8G	.
8r	.
[8G	.
=491	=491
8GL	.
8r	.
8r	.
=492	=492
4.r	.
=493	=493
4.r	.
=494	=494
[4.c	p
=495	=495
(16cLL	<
16B	.
16c	[
16B	.
16c	>
16B)	]
=496	=496
[4.c	.
=497	=497
16c	.
16B	.
16c	.
16B	.
16c	.
16B	.
=498	=498
[4.c	.
=499	=499
8cL	.
8r	.
8B-	.
=500	=500
8AL	.
8r	.
8G	.
=501	=501
(16FLL	.
16G	.
16A	.
16B-	.
16c	.
16c#)	.
=502	=502
(16dLL	p
16c#	.
16e	]
16d	>
16c	.
16B-)	]
=503	=503
4A	.
8r	.
=504	=504
(16dLL	.
16c#	.
16e	.
16d	.
16c	.
16B-)	.
=505	=505
4A	.
8r	.
=506	=506
(16dLL	.
16c#	.
16e	.
16d	.
16c	.
16B-)	.
=507	=507
!LO:TX:t=cresc.	!
(16ALL	<
16B-	.
16c	.
16d	.
16e	.
16f)	.
=508	=508
8gL	.
8g	.
8a	.
=509	=509
[4.b-	sf
=510	=510
4.b-	>
=511	=511
(4f	p
8a-)	.
=512	=512
(4g	.
8b-)	.
=513	=513
8r	.
!LO:TX:t=cresc.	!
(16C	.
16D	.
16E	.
16F)	.
=514	=514
8GL	.
8c	.
8c	.
=515	=515
4.d 4.f	p
=516	=516
(4.a-	sf
=517	=517
4.a)	p
=518	=518
4.a-	sf
=519	=519
(4a	p
8cc)	.
=520	=520
(4b-	.
8cc)	.
=521	=521
8aL	.
8A	.
8r	.
=522	=522
8r	.
8A	.
8r	.
=523	=523
8r	.
8B-	.
8r	.
=524	=524
8r	.
8B-	.
8r	.
=525	=525
!LO:TX:t=cresc.	!
8r	<
8c	.
8r	.
=526	=526
8r	.
8c	.
8r	.
=527	=527
8r	.
8B-	.
8r	.
=528	=528
8r	.
8d	.
8r	.
=529	=529
8r	[
8F 8c	f
8r	.
=530	=530
4.r	.
=531	=531
4.r	.
=532	=532
4.r	.
=533	=533
8FL	pp
4F	sf
=534	=534
8FL	.
4F	sf
=535	=535
(8AL	p
8G	.
8F)	.
=536	=536
8B-L	.
8c	.
8d	.
=537	=537
8e-L	.
8A	.
8B	.
=538	=538
8cL	.
8F#	.
8G	.
=539	=539
8E-L	.
8C	.
8F	.
=540	=540
4F	.
8r	.
=541	=541
8FL 8d	.
4E-	sf
=542	=542
8FL 8e-	.
4F 4e-	sf
=543	=543
4.r	.
=544	=544
8B-L	p
8B-	.
8B-	.
=545	=545
(8B-L	.
8e-	.
[8d)	.
=546	=546
(8dL	.
8c	.
8B-)	.
=547	=547
8GL	.
(8G	.
8A)	.
=548	=548
8B-L	.
8r	.
8r	.
=549	=549
4.r	.
=550	=550
4.r	.
=551	=551
8cL	.
8c	.
8c	.
=552	=552
4c	.
8r	.
=553	=553
8r	.
8F	.
8A-	.
=554	=554
4B-	.
8r	.
=555	=555
8dL	.
8f	.
8d	.
=556	=556
8gL	.
8r	.
[8b-	.
=557	=557
8b-L	.
8r	.
[8b-	.
=558	=558
8b-L	.
8r	.
8r	.
=559	=559
8r	.
8r	.
[8B-	.
=560	=560
8B-L	.
8r	.
(8d	.
=561	=561
8e-L)	.
8r	.
!LO:TX:t=cresc.	!
(8d	<
=562	=562
8e-L)	.
8r	.
(8B	.
=563	=563
16cLL)	[
(16g	f
16e-	.
16d	.
16c	.
16B-)	.
=564	=564
4A	p
8r	.
=565	=565
4.r	.
=566	=566
4.r	.
=567	=567
[4.f	p
=568	=568
(16fLL	<
16e	.
16f	[
16e	>
16f	.
16e)	]
=569	=569
[4.f	.
=570	=570
(16fLL	.
16e	.
16f	.
16e	.
16f	.
16e)	.
=571	=571
[4.f	.
=572	=572
8fL	.
8r	.
8e-	.
=573	=573
8dL	.
8r	.
8c	.
=574	=574
(16B-LL	.
16c	.
16d	.
16e-	.
16f	.
16f#)	.
=575	=575
(16gLL	p
16f#	.
16a	.
16g	.
16f#	.
16e-)	.
=576	=576
4d	.
8r	.
=577	=577
(16gLL	.
16f#	.
16a	.
16g	.
16f	.
16e-)	.
=578	=578
4d	.
8r	.
=579	=579
(16GLL	.
16F#	.
16A	.
16G	.
16F	.
16E-	.
=580	=580
!LO:TX:t=cresc.	!
16DLL	.
16E-	.
16F	.
16G	.
16A	.
16B-)	.
=581	=581
8cL	.
8c	.
8d	.
=582	=582
[4.e-	sf
=583	=583
4.e-	]
=584	=584
(4d-	p
8f)	.
=585	=585
(4c	.
8e-)	.
=586	=586
!LO:TX:t=cresc.	!
8r	.
(16F	.
16G	.
16A	.
16B-)	.
=587	=587
8cL	.
8c 8f	.
8B- 8f	.
=588	=588
4.B- 4.e-	.
=589	=589
(8A-L	p
8c	.
8e-	.
=590	=590
8A-L	.
8d-	.
8A-)	.
=591	=591
(8G-L	.
8B-	.
8d-	.
=592	=592
8G-L	.
8c-	.
8G-)	.
=593	=593
(8FL	.
8A	.
8c)	.
=594	=594
!LO:TX:t=cresc.	!
(8FL	.
8B-)	.
8B-	.
=595	=595
8B-L	.
8B-	.
8B-	.
=596	=596
(16dLL	.
16f)	.
16r	.
(16f	.
16d	.
16f)	.
=597	=597
(16cLL	.
16e-)	.
16r	.
(16e-	.
16c	.
16e-)	.
=598	=598
8dL	.
8d	p
8r	.
=599	=599
8r	.
8d	.
8r	.
=600	=600
8r	.
8e-	.
8r	.
=601	=601
8r	.
8e-	.
8r	.
=602	=602
8r	.
!LO:TX:t=cresc.	!
8d	<
8r	.
=603	=603
8r	.
8d	.
8r	.
=604	=604
8r	.
8e-	.
8r	.
=605	=605
8r	.
8B- 8g	.
8r	.
=606	=606
8r	.
8B- 8a-	.
8r	.
=607	=607
8r	.
8B- 8a-	.
8r	.
=608	=608
8r	.
8B- 8g	.
8r	.
=609	=609
8r	.
8f# 8a	.
8r	.
=610	=610
8r	[
[4g [4b-	ff
=611	=611
4.g 4.b-	.
=612||	=612||
*M2/4	*
!LO:TX:t=Tempo I.	!
4f	pp
(8fL	.
8f)	.
=613	=613
4f	.
(8..dL	.
32c	.
=614	=614
4B-)	.
(8b-L	.
8b-)	.
=615	=615
2b-	.
=616	=616
4F	pp
(8FL	.
8F)	.
=617	=617
4F	.
(8..GL	.
32A	.
=618	=618
8..BL	.
32c)	.
(8dL	.
8d)	.
=619	=619
2d	pp
=620	=620
2b	f
=621	=621
[4d	pp
16dLL	.
!LO:TX:a:B:t=Allegretto	!
16r	.
8r	.
=622||	=622||
*M3/8	*
8AL	.
4A	sf
=623	=623
8BL	.
4B	sf
=624	=624
8BL	p
8A	.
8G#	.
=625	=625
8cL	.
8r	.
8r	.
=626	=626
4.r	.
=627||	=627||
*M2/4	*
!LO:TX:t=cresc.	!
!LO:TX:t=Adagio	!
4E	.
(8EL	.
8E)	.
=628	=628
[4D	p
16DLL	.
!LO:TX:a:B:t=Allegretto	!
16r	.
8r	.
=629||	=629||
*M3/8	*
8GL	.
4G	sf
=630	=630
8AL	.
4A	sf
=631	=631
8AL	p
8G	.
8F#	.
=632	=632
8r	.
8G	.
8r	.
=633	=633
8r	.
8d	.
8r	.
=634	=634
8r	.
!LO:TX:t=decresc	!
8c	.
8r	.
=635	=635
8r	.
8e-	.
8r	.
=636	=636
8r	.
8e-	pp
8r	.
=637	=637
4.r	.
=638	=638
8FL	.
4F	sf
=639	=639
8FL	.
4F	sf
=640	=640
(8AL	p
8G	.
8F	.
=641	=641
8B-L	.
8c	.
8d)	.
=642	=642
(8e-L	.
8A	.
8B-	.
=643	=643
8cL	.
8F#	.
8G)	.
=644	=644
(8E-L	.
8C	.
8E-)	.
=645	=645
4F	.
8r	.
=646	=646
4.r	.
=647	=647
(8cL	sf
16B-	.
16A	.
16G)	.
16F	.
=648	=648
(8e-L	sf
16d	.
16c	.
16B-	.
16A)	.
=649	=649
!LO:TX:t=cresc.	!
16B-LL	.
(16B-	.
16c	.
16d	.
16e-	.
16f)	.
=650	=650
(8GL	f
8C	.
8D	.
=651	=651
8E-L	.
8A	.
8B-)	.
=652	=652
(8GL	.
8E-)	.
8A	.
=653	=653
8B-L	.
16r	.
(16D	p
16d	.
16c)	.
=654	=654
(16cLL	.
16B-)	.
16B-	.
16A	.
16G	.
16F	.
=655	=655
8E-L	.
8r	.
8r	.
=656	=656
4.r	.
=657	=657
8r	.
16r	p
(16F	.
16f	.
16e-)	.
=658	=658
(16e-LL	.
16d)	.
16d	.
16c	.
16B-	.
16A	.
=659	=659
8GL	.
8c	.
8c	.
=660	=660
!LO:TX:t=cresc.	!
4c	.
8c	.
=661	=661
4B-	.
8B-	.
=662	=662
16B-LL	.
16B-	.
(8B-	.
8A)	.
=663	=663
8B-L	.
16r	.
(16D	p
16d	.
16c)	.
=664	=664
(16cLL	.
16B-)	.
16B-	.
16A	.
16G	.
16F	.
=665	=665
8E-L	.
16r	.
(16C	.
16c	.
16B-)	.
=666	=666
16B-LL	.
16A	.
16A	.
16G	.
16F	.
16E-	.
=667	=667
8DL	.
8B-	.
8d	.
=668	=668
8fL	.
8r	.
8d	.
=669	=669
8e-L	.
8r	.
8r	.
=670	=670
8r	.
8g	.
8g	.
=671	=671
8aL	.
8c	.
8c	.
=672	=672
8B-L	.
8B-	.
8B-	.
=673	=673
!LO:TX:t=cresc.	!
(16B-LL	.
16G)	.
16r	.
(16G	.
16B-	.
16G)	.
=674	=674
(16B-LL	.
16G)	.
16r	.
(16G	.
16B-	.
16G)	.
=675	=675
(16B-LL	.
16F)	.
16r	.
(16F	.
16B-	.
16F)	.
=676	=676
(16ALL	.
16F)	.
16r	.
(16F	.
16A)	.
16F	.
=677	=677
8B-L	.
4F	p
=678	=678
8r	.
4F	.
=679	=679
8r	.
4F	.
=680	=680
8r	.
[4F	.
=681	=681
8FL	.
16r	.
(16F	.
16B-	.
16c	.
=682	=682
8dL)	.
16r	.
(16F	.
16B-	.
16d)	.
=683	=683
8e-L	.
[4c [4e-	.
=684	=684
8cL 8e-	.
[4c [4e-	.
=685	=685
!LO:TX:t=decresc	!
8cL 8e-	.
16r	.
(16F	.
16A	.
16c	.
=686	=686
8e-L)	.
16r	.
16c	pp
16c	.
16c	.
=687	=687
[4.c	.
=688	=688
8.cL	.
!LO:TX:a:B:t=poco Adagio	!
16r	.
8r	.
=689	=689
4.f	.
=690	=690
8.fL	.
16r	.
8r	.
=691	=691
4.f	.
=692	=692
8.fL	.
!LO:TX:a:B:t=Prestissimo	!
16r	.
8r	.
=693	=693
4F	p
8r	.
=694	=694
4F	.
8r	.
=695	=695
4F	.
8r	.
=696	=696
4d	.
8r	.
=697	=697
!LO:TX:t=cresc.	!
4.A-	.
=698	=698
8GL	.
8F	.
8E-	.
=699	=699
8DL	.
8E-	.
8E	.
=700	=700
8FL	.
8G	.
8A	.
=701	=701
(4B-	.
8A-)	.
=702	=702
8GL	.
8F	.
8E-	.
=703	=703
8DL	.
8E-	.
8E	.
=704	=704
8FL	.
8G	.
8A	.
=705	=705
(4B-	f
8A-)	.
=706	=706
8GL	.
8F	.
8E-	.
=707	=707
8DL	.
8E-	.
8E	.
=708	=708
8FL	.
8G	.
8A	.
=709	=709
16B-LL	ff
16d	.
16c	.
16B-	.
16A	.
16G	.
=710	=710
16FLL	.
16g	.
16f	.
16e-	.
16d	.
16c	.
=711	=711
8B-L	.
8r	.
8r	.
=712	=712
8FL	.
8r	.
8r	.
=713	=713
8B-L	.
16r	.
==	==
*-	*-
